icons/desktop/32/basketball-32.svg

<svg width="32" height="32" viewBox="0 0 32 32" fill="none" xmlns="http://www.w3.org/2000/svg">
<path fill-rule="evenodd" clip-rule="evenodd" d="M16 2C23.732 2 30 8.26801 30 16C30 23.732 23.732 30 16 30C8.26801 30 2 23.732 2 16C2 8.26801 8.26801 2 16 2ZM11.9229 17.25C11.5845 20.029 10.1272 22.5059 7.88379 24.1465C9.68631 25.9424 12.0812 27.1421 14.75 27.4307V17.25H11.9229ZM17.25 17.25V27.4307C19.9185 27.1422 22.3128 25.9421 24.1152 24.1465C21.8721 22.5059 20.4155 20.0287 20.0771 17.25H17.25ZM4.56934 17.25C4.76472 19.0572 5.37971 20.7372 6.31348 22.1943C7.96729 21.02 9.07104 19.2511 9.39746 17.25H4.56934ZM22.6025 17.25C22.9291 19.2515 24.0321 21.0201 25.6855 22.1943C26.6195 20.7371 27.2353 19.0574 27.4307 17.25H22.6025ZM6.31348 9.80469C5.37946 11.262 4.76475 12.9425 4.56934 14.75H9.39648C9.06987 12.7486 7.96677 10.979 6.31348 9.80469ZM14.75 4.56836C12.0814 4.85684 9.68628 6.05692 7.88379 7.85254C10.1276 9.49316 11.5846 11.9706 11.9229 14.75H14.75V4.56836ZM17.25 14.75H20.0771C20.4164 11.9763 21.8744 9.49559 24.1162 7.85352C22.3137 6.05762 19.9188 4.85687 17.25 4.56836V14.75ZM25.6855 9.80469C24.0336 10.9799 22.9299 12.7521 22.6025 14.75H27.4307C27.2352 12.9423 26.6197 11.2621 25.6855 9.80469Z" fill="black"/>
</svg>

<!-- This Source Code Form is subject to the terms of the Mozilla Public
   - License, v. 2.0. If a copy of the MPL was not distributed with this
   - file, You can obtain one at http://mozilla.org/MPL/2.0/. -->
<svg xmlns="http://www.w3.org/2000/svg" width="32" height="32" fill="context-fill" fill-opacity="context-fill-opacity" viewBox="0 0 32 32">
    <path fill-rule="evenodd" d="M16 2c7.732 0 14 6.268 14 14s-6.268 14-14 14S2 23.732 2 16 8.268 2 16 2m-4.077 15.25a10 10 0 0 1-4.04 6.897 11.46 11.46 0 0 0 6.867 3.284V17.25zm5.327 0v10.18a11.46 11.46 0 0 0 6.865-3.283 10 10 0 0 1-4.038-6.897zm-12.68 0c.195 1.807.81 3.487 1.743 4.944a7.53 7.53 0 0 0 3.084-4.944zm18.033 0a7.53 7.53 0 0 0 3.082 4.944 11.4 11.4 0 0 0 1.746-4.944zM6.313 9.805A11.4 11.4 0 0 0 4.57 14.75h4.827a7.53 7.53 0 0 0-3.083-4.945m8.437-5.237a11.46 11.46 0 0 0-6.866 3.285 10 10 0 0 1 4.039 6.897h2.827zm2.5 10.182h2.827a10.03 10.03 0 0 1 4.04-6.896 11.46 11.46 0 0 0-6.867-3.286zm8.436-4.945a7.55 7.55 0 0 0-3.084 4.945h4.829a11.4 11.4 0 0 0-1.745-4.945" clip-rule="evenodd" />
</svg>
